assets/icons/prost.svg

<svg width="25" height="25" viewBox="0 0 25 25" fill="none" xmlns="http://www.w3.org/2000/svg">
<path d="M19.8582 4.41969L19.4454 4.28379C17.2528 3.56148 14.959 3.19371 12.6505 3.19437C10.2317 3.19341 7.82966 3.59721 5.54403 4.38903L5.46929 4.41485C5.24856 4.49137 5.10826 4.70513 5.12817 4.93481C5.31555 7.08372 6.77112 8.54884 9.71759 9.54764C10.3529 9.65098 10.882 9.93637 11.2903 10.3958C11.9119 11.0958 12.1754 12.1469 12.0321 13.3556C11.9085 14.3981 12.0035 15.3588 12.0875 16.2074C12.1476 16.814 12.2044 17.3868 12.1439 17.8344C12.1315 17.925 12.1325 18.0116 12.1465 18.0919C12.2123 18.4684 12.2484 18.8495 12.2543 19.2317L12.2954 21.9528C12.2963 22.0022 12.3165 22.0494 12.3518 22.0842C12.3871 22.1189 12.4345 22.1384 12.484 22.1386H12.8837C12.9345 22.1386 12.9821 22.1188 13.0178 22.0828C13.0354 22.0651 13.0493 22.0441 13.0587 22.021C13.0681 21.9978 13.0727 21.9731 13.0723 21.9482L13.0441 19.2218C13.0403 18.866 13.0623 18.4538 13.1026 18.1194C13.1138 18.0314 13.1107 17.9422 13.0934 17.8553C13.0065 17.4304 13.0553 16.9404 13.1171 16.3202L13.1284 16.2076C13.2124 15.36 13.3077 14.3993 13.1839 13.3557C13.0407 12.1469 13.3041 11.0956 13.9257 10.3958C14.3757 9.88964 14.9934 9.58671 15.7122 9.51984C15.7165 9.51944 15.7206 9.51858 15.7247 9.51724C18.5532 8.55518 20.0191 7.0589 20.2065 4.94271C20.2268 4.71274 20.0803 4.49271 19.8582 4.41969Z" fill="white"/>
<path opacity="0.4" d="M11.1509 13.9966C11.2868 12.8499 11.0421 11.8586 10.462 11.2055C9.94706 10.6261 9.20146 10.3416 8.31326 10.393C7.79839 10.4224 7.36086 10.6498 7.01259 11.0687C6.31165 11.9116 6.02763 13.4746 6.25277 15.2501C6.55798 17.6566 8.54879 19.3336 10.1446 19.3336C10.2407 19.3336 10.3362 19.3276 10.4283 19.3159C11.3883 19.1941 11.3551 18.4021 11.2059 16.8951C11.1251 16.0789 11.0245 15.0632 11.1509 13.9966ZM16.9018 10.3929C16.0132 10.342 15.2681 10.626 14.7533 11.2054C14.173 11.8584 13.9283 12.8498 14.0643 13.9966C14.1907 15.0632 14.0901 16.079 14.0091 16.8952C13.8599 18.4021 13.8267 19.194 14.7867 19.3158C14.8789 19.3274 14.9743 19.3335 15.0704 19.3335C16.6662 19.3335 18.6571 17.6564 18.9623 15.25C19.1874 13.4745 18.9035 11.9115 18.2024 11.0686C17.8542 10.6497 17.4167 10.4224 16.9018 10.3929Z" fill="white"/>
</svg>

<svg xmlns="http://www.w3.org/2000/svg" width="25" height="25" fill="none" viewBox="0 0 25 25"><path fill="#fff" d="m19.858 4.42-.413-.136a21.7 21.7 0 0 0-6.795-1.09A21.7 21.7 0 0 0 5.544 4.39l-.075.026a.505.505 0 0 0-.34.52c.187 2.149 1.642 3.614 4.589 4.613a2.6 2.6 0 0 1 1.572.848c.622.7.885 1.75.742 2.96-.123 1.042-.028 2.003.056 2.851.06.607.116 1.18.056 1.627a.8.8 0 0 0 .002.258q.099.566.108 1.14l.041 2.72a.19.19 0 0 0 .189.187h.4a.187.187 0 0 0 .188-.19l-.028-2.727a9 9 0 0 1 .059-1.103.8.8 0 0 0-.01-.264c-.086-.425-.038-.915.024-1.535l.011-.112c.084-.848.18-1.809.056-2.852-.143-1.21.12-2.26.742-2.96.45-.506 1.067-.81 1.786-.876l.013-.003c2.828-.962 4.294-2.458 4.481-4.574a.51.51 0 0 0-.348-.523"/><path fill="#fff" d="M11.15 13.997c.137-1.147-.108-2.138-.688-2.791-.515-.58-1.26-.864-2.149-.813-.515.03-.952.257-1.3.676-.701.843-.985 2.406-.76 4.181.305 2.407 2.296 4.084 3.892 4.084q.145 0 .283-.018c.96-.122.927-.914.778-2.42-.08-.817-.181-1.833-.055-2.9m5.752-3.604c-.889-.051-1.634.233-2.149.812-.58.653-.825 1.645-.689 2.792.127 1.066.026 2.082-.055 2.898-.15 1.507-.182 2.299.778 2.42q.139.018.283.018c1.596 0 3.587-1.677 3.892-4.083.225-1.775-.058-3.338-.76-4.181-.348-.42-.785-.647-1.3-.676" opacity="0.4"/></svg>
